icons/linear-ele-drink-cold-drink.svg

<svg xmlns="http://www.w3.org/2000/svg" width="32px" height="32px" viewBox="0 0 32 32" version="1.1">
    <title>linear-ele-drink-cold-drink</title>
    <g id="linear-ele-drink-cold-drink" stroke-width="1" fill-rule="evenodd">
        <path d="M24,1.99995181 C27.3137085,1.99995181 30,4.6862915 30,8 C30,11.3137085 27.3137085,14 24,14 C23.1261965,14 22.2786469,13.8123224 21.5043698,13.4577482 L14.999208,22.3279518 L14.999208,27.9999518 L18,28 C18.5522847,28 19,28.4477153 19,29 C19,29.5522847 18.5522847,30 18,30 L10,30 C9.44771525,30 9,29.5522847 9,29 C9,28.4477153 9.44771525,28 10,28 L12.999208,27.9999518 L12.999208,22.3259518 L2.193595,7.59136366 C1.70920877,6.93083699 2.18089957,6 3,6 L5.05420805,5.99995181 L3.208715,3.6114475 C2.87102187,3.17443286 2.95153786,2.54640813 3.3885525,2.208715 C3.82556714,1.87102187 4.45359187,1.95153786 4.791285,2.3885525 L7.58220805,5.99995181 L18.3415422,5.99962995 C19.1653195,3.66943851 21.3877006,1.99995181 24,1.99995181 Z M6.59920805,7.99995181 L4.973,7.99995181 L14,20.308 L23.026,7.99995181 L9.12820805,7.99995181 L13.291285,13.3885525 C13.6289781,13.8255671 13.5484621,14.4535919 13.1114475,14.791285 C12.6744329,15.1289781 12.0464081,15.0484621 11.708715,14.6114475 L6.59920805,7.99995181 Z M24,4 C22.519485,4 21.2268344,4.80434324 20.5351985,5.99987956 L25,6 C25.8191004,6 26.2907912,6.93083699 25.806405,7.59136366 L22.7263705,11.7932921 C23.1314428,11.9291889 23.5600817,12 24,12 C26.209139,12 28,10.209139 28,8 C28,5.790861 26.209139,4 24,4 Z" id="&#24418;&#29366;" fill-rule="nonzero" />
    </g>
</svg>

<svg xmlns="http://www.w3.org/2000/svg" viewBox="0 0 32 32"><path fill="currentColor" d="M24 2a6 6 0 1 1-2.496 11.458L15 22.328V28H18a1 1 0 0 1 0 2h-8a1 1 0 0 1 0-2h3v-5.674L2.193 7.591A1 1 0 0 1 3 6h2.054L3.21 3.611A1 1 0 1 1 4.79 2.39L7.582 6h10.76c.823-2.33 3.046-4 5.658-4M6.6 8H4.972L14 20.308 23.026 8H9.128l4.163 5.389a1 1 0 0 1-1.582 1.222zM24 4c-1.48 0-2.773.804-3.465 2H25a1 1 0 0 1 .806 1.591l-3.08 4.202A4 4 0 1 0 24 4"/></svg>
